X:10277
T:March,1st part. JNu.15
M:4/4
Q:120
S:James Nuttall MS,c1830,Rossendale,East Lancs.
R:March
O:England
A:East Lancashire
Z:Chris Partington
K:C
"f,primo"c4g4|e2c>cc2"p"B>c|d2B2cBcd|B2g>g gagf|
"f"e4g4|c2cde4|egfec2B2|c2c>cc2z2::!
"p"d3c (BGBB)|c2G2E2C2|c2cde2dc|B2g>g gagf|
"f"e4g4|c2cde4|"p"egfdc2B2|"f"c2c>cc2z2:|]
